tools/download-figma-icons/icons/solid/energy-plug.svg

<svg width="24" height="24" viewBox="0 0 24 24" fill="none" xmlns="http://www.w3.org/2000/svg">
<path fill-rule="evenodd" clip-rule="evenodd" d="M9.71016 19.7921C8.89164 19.5289 8.10489 19.146 7.3965 18.6527C6.4921 19.5579 5.58772 20.4631 4.68334 21.3683C3.94676 22.1055 3.21022 22.8427 2.47367 23.58C1.91411 24.14 0.979233 24.14 0.419671 23.58C-0.13989 23.0199 -0.13989 22.0842 0.419671 21.5241L0.844886 21.0985C1.91813 20.0243 2.99135 18.9501 4.06456 17.8759C4.49338 17.4467 4.9222 17.0175 5.35101 16.5883C4.73962 15.7123 4.28397 14.7251 4.05906 13.6791C3.75948 12.2857 3.77644 10.816 4.19043 9.44592C4.5915 8.11856 5.31173 6.89724 6.29233 5.91575L8.80184 3.40399C9.3614 2.84392 10.2963 2.84392 10.8558 3.40399C11.2408 3.78933 11.6258 4.17468 12.0108 4.56003L13.7758 2.79346L16.1471 0.420049C16.7066 -0.140016 17.6415 -0.140016 18.201 0.420049C18.7606 0.980115 18.7606 1.91583 18.201 2.4759L18.1569 2.52008L14.0648 6.61587L15.6999 8.25243C16.2633 8.81633 16.8267 9.38023 17.3901 9.94413C17.9784 9.35529 18.5668 8.76644 19.1551 8.17759L21.5264 5.80416C22.0859 5.24409 23.0208 5.24409 23.5803 5.80418C24.1399 6.36425 24.1399 7.29997 23.5803 7.86003L23.5362 7.90421C22.6203 8.82098 21.7043 9.73775 20.7884 10.6545L19.4441 12L20.599 13.156C21.1586 13.716 21.1586 14.6517 20.5991 15.2117C19.9067 15.9048 19.3965 16.4155 19.0683 16.7439C18.6341 17.1785 18.2129 17.6383 17.7496 18.0426C16.6651 18.9889 15.3577 19.7028 13.9375 19.9833C12.5394 20.2594 11.0744 20.2307 9.71016 19.7921Z" fill="black"/>
</svg>

<svg width="24" height="24" viewBox="0 0 24 24" fill="none" xmlns="http://www.w3.org/2000/svg"><path fill-rule="evenodd" clip-rule="evenodd" d="M9.71 19.792a8.74 8.74 0 0 1-2.314-1.14l-2.713 2.716-2.21 2.212c-.559.56-1.494.56-2.053 0a1.469 1.469 0 0 1 0-2.056l.425-.425a287584.942 287584.942 0 0 0 4.506-4.51 8.079 8.079 0 0 1-1.292-2.91c-.3-1.393-.283-2.863.131-4.233a8.464 8.464 0 0 1 2.102-3.53l2.51-2.512c.56-.56 1.494-.56 2.054 0L12.01 4.56l1.765-1.767L16.147.42c.56-.56 1.495-.56 2.054 0 .56.56.56 1.496 0 2.056l-.044.044-4.092 4.096L15.7 8.252l1.69 1.692 1.765-1.766 2.371-2.374c.56-.56 1.495-.56 2.054 0 .56.56.56 1.496 0 2.056l-.044.044-2.748 2.75L19.444 12l1.155 1.156c.56.56.56 1.496 0 2.056l-1.53 1.532c-.435.434-.856.894-1.32 1.299-1.084.946-2.391 1.66-3.811 1.94-1.399.276-2.864.248-4.228-.19Z" fill="currentColor"/></svg>
